X: 68
T:Oscar Woods
M:6/8
L:1/8
C:Oscar Woods
R:Jig
N:http://www.lesession.co.uk
Z:Steve Mansfield 1998-2001
K:G
BAG BAG | BcB ded | GAG BAG | A3 A3 | 
BAG BAG | BcB ded | d2 g dBG | ABA G3 ::
B2 d dcB | c2 e edc | B2 d dBG | A3 A3 | 
B2 d dcB | c2 e edc | d2 g dBG | ABA G3 :|

